X:1
T:Title
%%score { 1 | 2 }
L:1/8
Q:1/4=112
M:4/4
K:D
V:1 treble nm="Grand Piano"
V:2 bass 
V:1
 F2 F2 F2 [EG]2 | [FA]2 [GB]2 [FA]4 | F2 FF [DF]2 [CE]2 | D6 z2 | F2 F2 F2 [EG]2 | %5
w: W.~Lewis~Kane * * *|||||
 [FA]2 [GB]2 [FA]4 | [DF]2 [DF][DF] [A,DF]2[K:bass] [G,CE]2 | [F,D]6 z2 | [Fd]6 [Ac]2 | %9
w: ||||
 [GB]2 [FA]6 | [DF]4 [DF]3 [CE] | [DF]2 [FA]2 [FA]2 z2 | [Fd]6 [Ac]2 | [GB]2 [FA]6 | %14
w: |||||
 [DF]4 [A,DF]3[K:bass] [G,CE] | [F,D]6 z2 |] %16
w: ||
V:2
 [D,A,D]2 [D,A,D]2 [D,A,D]2 [D,A,]2 | [D,D]2 [D,D]2 [D,D]4 | [A,D]2 [A,D][A,D] [A,,A,]2 [A,,G,]2 | %3
 [D,F,]6 z2 | [D,A,D]2 [D,A,D]2 [D,A,D]2 [D,A,]2 | [D,D]2 [D,D]2 [D,D]4 | A,2 A,A, A,,2 A,,2 | %7
 D,6 z2 | [D,A,]6 [D,A,]2 | [D,D]2 [D,D]6 | [D,A,]4 [D,A,]3 [A,,A,] | [D,A,]2 [D,D]2 [D,D]2 z2 | %12
 [D,A,]6 [D,A,]2 | [D,D]2 [D,D]6 | A,4 A,,3 A,, | D,6 z2 |] %16

